<?xml version="1.0" encoding="UTF-8"?>
<map version="1.10" tiledversion="1.11.2" orientation="orthogonal" renderorder="right-down" width="58" height="47" tilewidth="16" tileheight="16" infinite="0" nextlayerid="5" nextobjectid="8">
 <editorsettings>
  <export target="island.json" format="json"/>
 </editorsettings>
 <tileset firstgid="1" name="beach_tileset" tilewidth="16" tileheight="16" tilecount="936" columns="36">
  <image source="beach_tileset.png" width="576" height="416"/>
  <tile id="37">
   <animation>
    <frame tileid="37" duration="250"/>
    <frame tileid="46" duration="250"/>
    <frame tileid="55" duration="250"/>
    <frame tileid="64" duration="250"/>
   </animation>
  </tile>
  <tile id="38">
   <animation>
    <frame tileid="38" duration="250"/>
    <frame tileid="47" duration="250"/>
    <frame tileid="56" duration="250"/>
    <frame tileid="65" duration="250"/>
   </animation>
  </tile>
  <tile id="39">
   <animation>
    <frame tileid="39" duration="250"/>
    <frame tileid="48" duration="250"/>
    <frame tileid="57" duration="250"/>
    <frame tileid="66" duration="250"/>
   </animation>
  </tile>
  <tile id="41">
   <animation>
    <frame tileid="41" duration="250"/>
    <frame tileid="50" duration="250"/>
    <frame tileid="59" duration="250"/>
    <frame tileid="68" duration="250"/>
   </animation>
  </tile>
  <tile id="42">
   <animation>
    <frame tileid="42" duration="250"/>
    <frame tileid="51" duration="250"/>
    <frame tileid="60" duration="250"/>
    <frame tileid="69" duration="250"/>
   </animation>
  </tile>
  <tile id="43">
   <animation>
    <frame tileid="43" duration="250"/>
    <frame tileid="52" duration="250"/>
    <frame tileid="61" duration="250"/>
    <frame tileid="70" duration="250"/>
   </animation>
  </tile>
  <tile id="73">
   <animation>
    <frame tileid="73" duration="250"/>
    <frame tileid="82" duration="250"/>
    <frame tileid="91" duration="250"/>
    <frame tileid="100" duration="250"/>
   </animation>
  </tile>
  <tile id="75">
   <animation>
    <frame tileid="75" duration="250"/>
    <frame tileid="84" duration="250"/>
    <frame tileid="93" duration="250"/>
    <frame tileid="102" duration="250"/>
   </animation>
  </tile>
  <tile id="76">
   <animation>
    <frame tileid="76" duration="250"/>
    <frame tileid="85" duration="250"/>
    <frame tileid="94" duration="250"/>
    <frame tileid="103" duration="250"/>
   </animation>
  </tile>
  <tile id="77">
   <animation>
    <frame tileid="77" duration="250"/>
    <frame tileid="86" duration="250"/>
    <frame tileid="95" duration="250"/>
    <frame tileid="104" duration="250"/>
   </animation>
  </tile>
  <tile id="79">
   <animation>
    <frame tileid="79" duration="250"/>
    <frame tileid="88" duration="250"/>
    <frame tileid="97" duration="250"/>
    <frame tileid="106" duration="250"/>
   </animation>
  </tile>
  <tile id="109">
   <animation>
    <frame tileid="109" duration="250"/>
    <frame tileid="118" duration="250"/>
    <frame tileid="127" duration="250"/>
    <frame tileid="136" duration="250"/>
   </animation>
  </tile>
  <tile id="110">
   <animation>
    <frame tileid="110" duration="250"/>
    <frame tileid="119" duration="250"/>
    <frame tileid="128" duration="250"/>
    <frame tileid="137" duration="250"/>
   </animation>
  </tile>
  <tile id="114">
   <animation>
    <frame tileid="114" duration="250"/>
    <frame tileid="123" duration="250"/>
    <frame tileid="132" duration="250"/>
    <frame tileid="141" duration="250"/>
   </animation>
  </tile>
  <tile id="115">
   <animation>
    <frame tileid="115" duration="250"/>
    <frame tileid="124" duration="250"/>
    <frame tileid="133" duration="250"/>
    <frame tileid="142" duration="250"/>
   </animation>
  </tile>
  <tile id="146">
   <animation>
    <frame tileid="146" duration="250"/>
    <frame tileid="155" duration="250"/>
    <frame tileid="164" duration="250"/>
    <frame tileid="173" duration="250"/>
   </animation>
  </tile>
  <tile id="148">
   <animation>
    <frame tileid="148" duration="250"/>
    <frame tileid="157" duration="250"/>
    <frame tileid="166" duration="250"/>
   </animation>
  </tile>
  <tile id="150">
   <animation>
    <frame tileid="150" duration="250"/>
    <frame tileid="159" duration="250"/>
    <frame tileid="168" duration="250"/>
    <frame tileid="177" duration="250"/>
   </animation>
  </tile>
  <tile id="181">
   <animation>
    <frame tileid="181" duration="250"/>
    <frame tileid="190" duration="250"/>
    <frame tileid="199" duration="250"/>
    <frame tileid="208" duration="250"/>
   </animation>
  </tile>
  <tile id="182">
   <animation>
    <frame tileid="182" duration="250"/>
    <frame tileid="191" duration="250"/>
    <frame tileid="200" duration="250"/>
    <frame tileid="209" duration="250"/>
   </animation>
  </tile>
  <tile id="186">
   <animation>
    <frame tileid="186" duration="250"/>
    <frame tileid="195" duration="250"/>
    <frame tileid="204" duration="250"/>
    <frame tileid="213" duration="250"/>
   </animation>
  </tile>
  <tile id="187">
   <animation>
    <frame tileid="187" duration="250"/>
    <frame tileid="196" duration="250"/>
    <frame tileid="205" duration="250"/>
    <frame tileid="214" duration="250"/>
   </animation>
  </tile>
  <tile id="217">
   <animation>
    <frame tileid="217" duration="250"/>
    <frame tileid="226" duration="250"/>
    <frame tileid="235" duration="250"/>
    <frame tileid="244" duration="250"/>
   </animation>
  </tile>
  <tile id="219">
   <animation>
    <frame tileid="219" duration="250"/>
    <frame tileid="228" duration="250"/>
    <frame tileid="237" duration="250"/>
    <frame tileid="246" duration="250"/>
   </animation>
  </tile>
  <tile id="220">
   <animation>
    <frame tileid="220" duration="250"/>
    <frame tileid="229" duration="250"/>
    <frame tileid="238" duration="250"/>
    <frame tileid="247" duration="250"/>
   </animation>
  </tile>
  <tile id="221">
   <animation>
    <frame tileid="221" duration="250"/>
    <frame tileid="230" duration="250"/>
    <frame tileid="239" duration="250"/>
    <frame tileid="248" duration="250"/>
   </animation>
  </tile>
  <tile id="223">
   <animation>
    <frame tileid="223" duration="250"/>
    <frame tileid="232" duration="250"/>
    <frame tileid="241" duration="250"/>
    <frame tileid="250" duration="250"/>
   </animation>
  </tile>
  <tile id="253">
   <animation>
    <frame tileid="253" duration="250"/>
    <frame tileid="262" duration="250"/>
    <frame tileid="271" duration="250"/>
    <frame tileid="280" duration="250"/>
   </animation>
  </tile>
  <tile id="254">
   <animation>
    <frame tileid="254" duration="250"/>
    <frame tileid="263" duration="250"/>
    <frame tileid="272" duration="250"/>
    <frame tileid="281" duration="250"/>
   </animation>
  </tile>
  <tile id="255">
   <animation>
    <frame tileid="255" duration="250"/>
    <frame tileid="264" duration="250"/>
    <frame tileid="273" duration="250"/>
    <frame tileid="282" duration="250"/>
   </animation>
  </tile>
  <tile id="257">
   <animation>
    <frame tileid="257" duration="250"/>
    <frame tileid="266" duration="250"/>
    <frame tileid="275" duration="250"/>
    <frame tileid="284" duration="250"/>
   </animation>
  </tile>
  <tile id="258">
   <animation>
    <frame tileid="258" duration="250"/>
    <frame tileid="267" duration="250"/>
    <frame tileid="276" duration="250"/>
    <frame tileid="285" duration="250"/>
   </animation>
  </tile>
  <tile id="259">
   <animation>
    <frame tileid="259" duration="250"/>
    <frame tileid="268" duration="250"/>
    <frame tileid="277" duration="250"/>
    <frame tileid="286" duration="250"/>
   </animation>
  </tile>
 </tileset>
 <layer id="1" name="Ground" width="58" height="47">
  <data encoding="csv">
149,149,149,149,149,149,149,149,149,149,149,149,149,149,149,149,149,149,149,149,149,149,149,149,149,149,149,149,149,149,149,149,149,149,149,149,149,149,149,149,149,149,149,149,149,149,149,149,149,149,149,149,149,149,149,149,149,149,
149,149,149,149,149,149,149,149,149,149,149,149,149,149,149,149,149,149,149,149,149,149,149,149,149,149,149,149,149,149,149,149,149,149,149,149,149,149,149,149,149,149,149,149,149,149,149,149,149,149,149,149,149,149,149,149,149,149,
149,149,149,149,149,149,149,149,149,149,149,149,149,149,149,149,149,149,149,149,149,149,149,149,149,149,149,149,149,149,149,149,149,149,149,149,149,149,149,149,149,149,149,149,149,149,149,149,149,149,149,149,149,149,149,149,149,149,
149,149,149,149,149,149,149,149,149,149,149,149,149,149,149,149,149,149,149,149,149,149,149,149,149,149,149,149,149,149,149,149,149,149,149,149,149,149,149,149,149,149,149,149,149,149,149,149,149,149,149,149,149,149,149,149,149,149,
149,149,149,149,149,149,149,149,149,149,149,149,149,149,149,149,149,149,149,149,149,149,149,149,149,149,149,149,149,149,149,149,149,149,149,149,149,149,149,149,149,149,149,149,149,149,149,149,149,149,149,149,149,149,149,149,149,149,
149,149,149,149,149,149,149,149,149,149,149,149,149,149,149,149,149,149,149,149,149,149,149,149,149,149,149,149,149,149,149,149,149,149,149,149,149,149,149,149,149,149,149,149,149,149,149,149,149,149,149,149,149,149,149,149,149,149,
149,149,149,149,149,149,149,149,149,149,149,149,149,149,149,149,149,149,149,149,149,149,149,149,149,149,149,149,149,149,149,149,149,149,149,149,149,149,149,149,149,149,149,149,149,149,149,149,149,149,149,149,149,149,149,149,149,149,
149,149,149,149,149,149,149,149,149,149,149,149,149,149,149,149,149,149,149,149,149,149,149,149,149,149,149,149,149,149,149,149,149,149,149,149,149,149,149,149,149,149,149,149,149,149,220,221,221,221,221,222,149,149,149,149,149,149,
149,149,149,149,149,149,149,149,149,149,149,149,149,149,149,149,149,149,149,149,149,149,149,149,149,149,149,149,149,149,149,149,149,149,149,149,149,149,149,149,149,149,149,149,220,221,116,257,257,257,257,110,111,149,149,149,149,149,
149,149,149,149,149,149,149,149,149,149,149,149,149,149,149,149,149,149,149,149,149,149,149,149,149,149,149,149,149,149,149,149,149,149,149,149,149,149,149,149,149,149,149,220,116,257,401,405,339,339,406,146,147,149,149,149,149,149,
149,149,149,149,149,149,149,149,149,149,149,149,149,149,149,149,149,149,149,149,149,149,149,149,149,149,149,149,149,149,149,149,149,149,149,149,149,149,149,149,149,149,115,116,401,335,339,339,405,339,339,146,147,149,149,149,149,149,
149,149,149,149,149,149,149,149,149,149,149,149,149,149,149,149,149,149,149,149,149,149,149,149,149,149,149,149,149,149,149,149,149,149,149,149,149,149,149,149,149,149,151,152,404,339,406,339,339,339,339,146,147,149,149,149,149,149,
149,149,149,149,149,149,149,149,149,149,149,149,149,149,149,149,149,149,149,149,149,149,149,149,149,149,149,149,149,149,149,149,149,149,149,149,149,149,149,149,149,149,76,40,41,472,339,339,470,471,472,146,147,149,149,149,149,149,
149,149,149,149,149,149,149,149,149,149,149,149,149,149,149,149,149,149,149,149,149,149,149,149,149,149,149,149,149,149,149,149,149,149,149,149,220,221,221,222,149,149,149,76,77,40,41,41,42,43,40,42,78,149,149,149,149,149,
149,149,149,149,149,149,149,149,149,149,149,149,149,149,149,149,149,149,149,149,149,149,149,149,149,149,149,149,149,149,149,149,149,149,149,115,116,257,257,110,111,149,149,149,149,76,77,77,78,149,76,78,149,149,149,149,149,149,
149,149,149,149,149,149,149,149,149,149,149,149,149,149,149,149,149,149,149,149,149,149,149,149,149,149,149,149,149,149,149,149,149,149,115,256,401,335,335,146,147,149,149,149,149,149,149,149,149,149,149,149,149,149,149,149,149,149,
149,149,149,149,149,149,149,149,149,149,149,149,149,149,149,149,149,149,220,221,221,221,221,221,221,221,222,149,149,149,220,221,221,255,116,401,335,334,338,578,258,221,222,149,149,149,149,149,149,149,149,149,149,149,149,149,149,149,
149,149,149,149,149,149,149,149,149,149,149,149,149,149,149,149,149,115,116,257,257,257,257,257,257,257,110,111,149,115,116,257,257,257,401,335,339,339,339,339,398,257,258,221,221,221,221,221,222,149,149,149,149,149,149,149,149,149,
149,149,149,149,149,149,149,149,149,149,149,149,149,149,149,149,115,116,401,339,519,336,1610613107,336,336,336,146,147,149,151,152,335,334,336,333,339,339,406,335,339,339,336,398,257,257,257,257,257,110,111,149,149,149,149,149,149,149,149,
149,149,149,149,149,149,149,149,149,149,149,149,149,149,149,115,116,401,339,339,339,336,1610613106,339,336,336,578,258,222,187,188,329,337,336,339,339,339,333,336,338,337,337,334,339,339,335,483,335,146,147,149,149,149,149,149,149,149,149,
149,149,149,149,149,149,149,149,149,149,149,149,149,149,149,151,152,335,519,339,339,405,1610613105,339,339,336,339,146,147,149,151,152,338,339,334,339,334,338,339,339,334,333,405,337,337,334,337,326,42,78,149,149,149,149,149,149,149,149,
149,149,149,149,149,149,149,149,149,220,221,221,222,149,149,187,188,471,472,336,333,339,1610613104,339,339,336,336,146,147,149,151,152,334,339,339,339,333,339,333,335,339,339,339,338,338,483,326,42,78,149,149,149,149,149,149,149,149,149,
149,149,149,149,149,149,149,220,221,116,257,257,258,222,149,149,76,39,40,472,335,337,339,334,405,336,336,146,147,149,151,152,336,339,339,339,333,337,334,337,339,339,339,337,335,326,42,78,149,149,149,149,149,149,149,149,149,149,
149,149,149,149,149,149,220,116,257,401,336,336,398,258,222,149,149,149,76,40,472,336,333,339,339,336,336,146,147,149,151,152,336,336,333,334,338,334,333,334,339,339,335,336,326,42,78,149,149,149,149,149,149,149,149,149,149,149,
149,149,149,149,149,220,116,401,339,339,339,339,336,398,258,221,221,222,149,76,40,472,336,339,339,336,336,146,147,149,151,152,339,336,338,334,334,334,339,339,339,334,339,334,146,147,149,149,149,149,149,149,149,149,149,149,149,149,
149,149,149,149,115,116,401,339,339,339,339,339,339,339,398,257,257,110,111,149,76,40,329,336,339,339,338,398,110,221,116,401,339,336,339,334,334,339,339,339,339,339,339,339,398,110,222,149,149,149,149,149,149,149,149,149,149,149,
149,149,149,149,151,152,339,339,336,336,339,339,339,339,339,335,335,146,147,149,149,151,365,336,336,339,336,336,578,579,580,336,336,336,336,336,339,339,339,339,339,339,339,339,337,398,110,111,149,149,149,149,149,149,149,149,149,149,
149,149,149,149,187,188,472,333,333,470,471,471,472,336,339,339,335,146,147,149,115,116,401,336,339,339,339,339,336,339,336,333,338,338,372,337,336,339,339,337,339,338,335,339,481,482,146,147,149,149,149,149,149,149,149,149,149,149,
149,149,149,149,149,76,40,41,41,42,39,39,40,472,338,339,326,42,78,149,151,152,336,336,333,339,339,339,339,339,339,339,339,339,339,339,339,339,339,339,338,335,334,339,517,518,146,147,149,149,149,149,149,149,149,149,149,149,
149,149,149,149,149,149,76,77,77,78,149,149,76,40,329,334,146,147,149,149,151,152,335,333,339,339,339,338,339,339,333,339,339,339,338,339,339,333,336,337,333,333,368,369,370,371,146,147,149,149,149,149,149,149,149,149,149,149,
149,149,149,149,149,149,149,149,149,149,149,149,149,151,365,339,146,147,149,149,151,152,339,339,339,334,339,404,339,338,334,336,336,336,336,336,336,470,471,472,333,333,470,471,472,335,146,147,149,149,149,149,149,149,149,149,149,149,
149,149,149,149,149,149,149,149,149,149,149,149,149,151,152,335,578,110,221,221,256,401,339,339,339,339,336,339,339,339,336,336,470,471,472,333,470,42,77,40,41,41,42,43,40,41,42,78,149,149,149,149,149,149,149,149,149,149,
149,149,149,149,149,149,149,149,149,149,149,149,149,76,40,472,336,578,579,579,580,336,339,339,338,339,339,335,334,335,336,470,42,39,40,41,42,78,149,76,77,77,78,149,76,77,78,149,149,149,149,149,149,149,149,149,149,149,
149,149,149,149,149,149,220,221,221,221,222,149,149,149,76,40,472,335,338,339,334,333,339,334,334,470,471,472,336,337,336,146,147,149,76,77,78,149,149,149,149,149,149,149,149,149,149,149,149,149,149,149,149,149,149,149,149,149,
149,149,149,149,149,115,116,257,257,257,258,221,221,222,149,76,40,472,336,334,335,339,339,334,470,42,39,40,472,333,333,146,147,149,149,149,149,149,149,149,149,149,149,149,149,149,149,149,149,149,149,149,149,149,149,149,149,149,
149,149,149,149,149,151,152,335,406,336,398,257,257,110,111,149,76,40,472,336,338,479,480,335,146,147,149,76,40,41,41,42,78,149,149,149,149,149,149,149,149,149,149,149,149,149,149,149,149,149,149,149,149,149,149,149,149,149,
149,149,149,149,149,187,188,329,339,404,339,406,335,146,147,149,149,76,40,472,337,515,516,334,146,147,149,149,76,77,77,78,149,149,149,149,149,149,149,149,149,149,149,149,149,149,149,149,149,149,149,149,149,149,149,149,149,149,
149,149,149,149,149,149,187,188,329,339,339,339,326,42,78,149,149,149,76,40,472,333,333,470,42,78,149,149,149,149,149,149,149,149,149,149,149,149,149,149,149,149,149,149,149,149,149,149,149,149,149,149,149,149,149,149,149,149,
149,149,149,149,149,149,149,151,152,333,339,470,42,78,149,149,149,149,149,76,40,41,41,42,78,149,149,149,149,149,149,149,149,149,149,149,149,149,149,149,149,149,149,149,149,149,149,149,149,149,149,149,149,149,149,149,149,149,
149,149,149,149,149,149,149,76,40,41,41,42,78,149,149,149,149,149,149,149,76,77,77,78,149,149,149,149,149,149,149,149,149,149,149,149,149,149,149,149,149,149,149,149,149,149,149,149,149,149,149,149,149,149,149,149,149,149,
149,149,149,149,149,149,149,149,76,77,77,78,149,149,149,149,149,149,149,149,149,149,149,149,149,149,149,149,149,149,149,149,149,149,149,149,149,149,149,149,149,149,149,149,149,149,149,149,149,149,149,149,149,149,149,149,149,149,
149,149,149,149,149,149,149,149,149,149,149,149,149,149,149,149,149,149,149,149,149,149,149,149,149,149,149,149,149,149,149,149,149,149,149,149,149,149,149,149,149,149,149,149,149,149,149,149,149,149,149,149,149,149,149,149,149,149,
149,149,149,149,149,149,149,149,149,149,149,149,149,149,149,149,149,149,149,149,149,149,149,149,149,149,149,149,149,149,149,149,149,149,149,149,149,149,149,149,149,149,149,149,149,149,149,149,149,149,149,149,149,149,149,149,149,149,
149,149,149,149,149,149,149,149,149,149,149,149,149,149,149,149,149,149,149,149,149,149,149,149,149,149,149,149,149,149,149,149,149,149,149,149,149,149,149,149,149,149,149,149,149,149,149,149,149,149,149,149,149,149,149,149,149,149,
149,149,149,149,149,149,149,149,149,149,149,149,149,149,149,149,149,149,149,149,149,149,149,149,149,149,149,149,149,149,149,149,149,149,149,149,149,149,149,149,149,149,149,149,149,149,149,149,149,149,149,149,149,149,149,149,149,149,
149,149,149,149,149,149,149,149,149,149,149,149,149,149,149,149,149,149,149,149,149,149,149,149,149,149,149,149,149,149,149,149,149,149,149,149,149,149,149,149,149,149,149,149,149,149,149,149,149,149,149,149,149,149,149,149,149,149,
149,149,149,149,149,149,149,149,149,149,149,149,149,149,149,149,149,149,149,149,149,149,149,149,149,149,149,149,149,149,149,149,149,149,149,149,149,149,149,149,149,149,149,149,149,149,149,149,149,149,149,149,149,149,149,149,149,149
</data>
 </layer>
 <layer id="2" name="Fringe" width="58" height="47">
  <data encoding="csv">
0,0,0,0,0,0,0,0,0,0,0,0,0,0,0,0,0,0,0,0,0,0,0,0,0,0,0,0,0,0,0,0,0,0,0,0,0,0,0,0,0,0,0,0,0,0,0,0,0,0,0,0,0,0,0,0,0,0,
0,0,0,0,0,0,0,0,0,0,0,0,0,0,0,0,0,0,0,0,0,0,0,0,0,0,0,0,0,0,0,0,0,0,0,0,0,0,0,0,0,0,0,0,0,0,0,0,0,0,0,0,0,0,0,0,0,0,
0,0,0,0,0,0,0,0,0,0,0,0,0,0,0,0,0,0,0,0,0,0,0,0,0,0,0,0,0,0,0,0,0,0,0,0,0,0,0,0,0,0,0,0,0,0,0,0,0,0,0,0,0,0,0,0,0,0,
0,0,0,0,0,0,0,0,0,0,0,0,0,0,0,0,0,0,0,0,0,0,0,0,0,0,0,0,0,0,0,0,0,0,0,0,0,0,0,0,0,0,0,0,0,0,0,0,0,0,0,0,0,0,0,0,0,0,
0,0,0,0,0,0,0,0,0,0,0,0,0,0,0,0,0,0,0,0,0,0,0,0,0,0,0,0,0,0,0,0,0,0,0,0,0,0,0,0,0,0,0,0,0,0,0,0,0,0,0,0,0,0,0,0,0,0,
0,0,0,0,0,0,0,0,0,0,0,0,0,0,0,0,0,0,0,0,0,0,0,0,0,0,0,0,0,0,0,0,0,0,0,0,0,0,0,0,0,0,0,0,0,0,0,0,0,0,0,0,0,0,0,0,0,0,
0,0,0,0,0,0,0,0,0,0,0,0,0,0,0,0,0,0,0,0,0,0,0,0,0,0,0,0,0,0,0,0,0,0,0,0,0,0,0,0,0,0,0,0,0,0,0,0,0,0,0,0,0,0,0,0,0,0,
0,0,0,0,0,0,0,0,0,0,0,0,0,0,0,0,0,0,0,0,0,0,0,0,0,0,0,0,0,0,0,0,0,0,0,0,0,0,0,0,0,0,0,0,0,0,0,0,0,0,0,0,0,0,0,0,0,0,
0,0,0,0,0,0,0,0,0,0,0,0,0,0,0,0,0,0,0,0,0,0,0,0,0,0,0,0,0,0,0,0,0,0,0,0,0,0,0,0,0,0,0,0,0,0,0,0,0,0,0,0,0,0,0,0,0,0,
0,0,0,0,0,0,0,0,0,0,0,0,0,0,0,0,0,0,0,0,0,0,0,0,0,0,0,0,0,0,0,0,0,0,0,0,0,0,0,0,0,0,0,0,0,0,0,0,0,0,0,0,0,0,0,0,0,0,
0,0,0,0,0,0,0,0,0,0,0,0,0,0,0,0,0,0,0,0,0,0,0,0,0,0,0,0,0,0,0,0,0,0,0,0,0,0,0,0,0,0,0,0,0,0,0,0,554,0,0,0,0,0,0,0,0,0,
0,0,0,0,0,0,0,0,0,0,0,0,0,0,0,0,0,0,0,0,0,0,0,0,0,0,0,0,0,0,0,0,0,0,0,0,0,0,0,0,0,0,0,0,0,0,0,0,0,0,588,0,0,0,0,0,0,0,
0,0,0,0,0,0,0,0,0,0,0,0,0,0,0,0,0,0,0,0,0,0,0,0,0,0,0,0,0,0,0,0,0,0,0,0,0,0,0,0,0,0,0,0,0,0,551,411,0,0,0,0,0,0,0,0,0,0,
0,0,0,0,0,0,0,0,0,0,0,0,0,0,0,0,0,0,0,0,0,340,341,342,0,0,0,0,0,0,0,0,0,0,0,0,0,0,0,0,0,0,0,0,0,0,0,447,0,0,0,0,0,0,0,0,0,0,
0,0,0,0,0,0,0,0,0,0,0,0,0,0,0,0,0,0,0,0,0,376,377,378,0,0,0,0,0,0,0,0,0,0,0,0,0,0,0,0,0,0,0,0,0,0,0,0,0,0,0,0,0,0,0,0,0,0,
0,0,0,0,0,0,0,0,0,0,0,0,0,0,0,0,0,0,0,0,0,412,413,414,0,0,0,0,0,0,0,0,0,0,0,0,0,0,0,0,0,0,0,0,0,0,0,0,0,0,0,0,0,0,0,0,0,0,
0,0,0,0,0,0,0,0,0,0,0,0,0,0,0,0,0,0,0,0,0,448,449,450,0,0,0,0,0,0,0,0,0,0,0,0,0,0,0,0,0,0,0,0,0,0,0,0,0,0,0,0,0,0,0,0,0,0,
0,0,0,0,0,0,0,0,0,0,0,0,0,0,0,0,0,0,0,0,0,484,485,486,0,0,0,0,0,0,0,0,0,0,0,0,0,0,0,0,0,0,0,0,0,0,0,0,0,0,0,0,0,0,0,0,0,0,
0,0,0,0,0,0,0,0,0,0,0,0,0,0,0,0,0,0,0,0,0,0,0,553,0,0,0,0,0,0,0,0,0,0,0,0,0,0,0,0,623,0,0,0,0,0,0,0,0,0,0,0,0,0,0,0,0,0,
0,0,0,0,0,0,0,0,0,0,0,0,0,0,0,0,0,0,0,0,0,0,0,339,0,554,0,0,0,0,0,0,0,0,0,0,0,0,0,0,0,0,0,0,0,0,0,0,0,0,0,0,0,0,0,0,0,0,
0,0,0,0,0,0,0,0,0,0,0,0,0,0,0,0,0,0,0,0,0,0,0,590,591,0,0,0,0,0,0,0,0,0,0,0,0,0,0,0,0,0,0,0,0,0,0,0,0,0,0,0,0,0,0,0,0,0,
0,0,0,0,0,0,0,0,0,0,0,0,0,0,0,0,0,0,0,0,0,0,553,0,0,0,0,0,0,0,0,0,0,0,0,0,0,0,0,0,0,0,0,0,0,0,0,0,0,0,0,0,0,0,0,0,0,0,
0,0,0,0,0,0,0,0,0,0,0,0,0,0,0,0,0,0,0,0,0,0,0,0,0,0,0,0,0,0,0,0,0,0,0,0,0,585,0,0,0,0,0,588,0,0,0,0,0,0,0,0,0,0,0,0,0,0,
0,0,0,0,0,0,0,0,0,0,0,0,0,0,0,0,0,0,0,0,0,0,0,0,0,0,0,0,0,0,0,0,0,0,0,0,0,0,0,800,801,624,0,0,0,0,0,0,0,0,0,0,0,0,0,0,0,0,
0,0,0,0,0,0,0,0,0,0,587,0,0,0,0,0,0,0,0,0,0,0,0,0,0,0,0,0,0,0,0,0,0,0,0,0,0,0,0,0,0,0,0,0,0,0,0,0,0,0,0,0,0,0,0,0,0,0,
0,0,0,0,0,0,0,0,589,554,0,0,0,0,0,0,0,0,0,0,0,0,0,0,0,0,0,0,0,0,0,0,0,0,0,0,0,0,0,0,555,0,0,0,0,0,0,0,0,0,0,0,0,0,0,0,0,0,
0,0,0,0,0,0,0,623,555,0,0,0,0,0,0,0,0,0,0,0,0,0,0,0,0,0,0,0,0,0,0,631,559,560,561,562,0,0,0,0,0,554,0,0,0,0,0,0,0,0,0,0,0,0,0,0,0,0,
0,0,0,0,0,0,0,0,0,0,0,0,0,0,0,0,0,0,0,0,0,0,0,0,0,0,805,0,0,0,0,0,0,0,0,0,0,0,0,0,0,0,0,0,0,0,0,0,0,0,0,0,0,0,0,0,0,0,
0,0,0,0,0,0,0,0,0,0,0,0,0,0,0,0,0,0,0,0,0,0,0,0,0,0,0,0,629,630,631,632,0,0,0,0,0,0,0,0,0,0,0,0,0,0,343,344,345,346,347,0,0,0,0,0,0,0,
0,0,0,0,0,0,0,0,0,0,0,0,0,0,0,0,0,0,0,0,0,0,0,585,624,0,0,0,0,0,633,634,635,0,0,0,0,0,0,0,0,0,0,0,0,0,379,380,381,382,383,0,0,0,0,0,0,0,
0,0,0,0,0,0,0,0,0,0,0,0,0,0,0,0,0,0,0,0,0,0,0,0,0,0,0,0,0,0,0,0,0,0,0,0,0,0,0,0,409,410,0,0,0,0,415,416,417,418,419,0,0,0,0,0,0,0,
0,0,0,0,0,0,0,0,0,0,0,0,0,0,0,0,0,0,0,0,0,0,0,587,0,0,0,0,0,632,0,0,0,0,0,0,0,0,0,0,445,446,0,0,0,0,0,0,0,0,0,0,0,0,0,0,0,0,
0,0,0,0,0,0,0,0,0,0,0,0,0,0,0,0,0,0,0,0,0,0,0,0,623,0,589,0,0,0,0,0,0,0,0,0,0,0,0,0,0,0,0,0,0,0,0,0,0,0,0,0,0,0,0,0,0,0,
0,0,0,0,0,0,0,0,0,0,0,0,0,0,0,0,0,0,0,0,0,0,0,0,0,0,0,0,0,0,0,0,0,0,0,0,0,0,0,0,0,0,0,0,0,0,0,0,0,0,0,0,0,0,0,0,0,0,
0,0,0,0,0,0,0,0,0,0,0,0,0,0,0,0,0,0,0,0,0,0,623,0,0,0,0,0,0,0,555,0,0,0,0,0,0,0,0,0,0,0,0,0,0,0,0,0,0,0,0,0,0,0,0,0,0,0,
0,0,0,0,0,0,0,0,0,0,0,0,0,0,0,0,0,0,0,0,0,0,0,0,0,0,0,0,0,0,0,0,0,0,0,0,0,0,0,0,0,0,0,0,0,0,0,0,0,0,0,0,0,0,0,0,0,0,
0,0,0,0,0,0,0,0,0,0,0,0,0,0,0,0,0,0,0,0,0,0,0,0,0,0,0,0,0,0,0,0,0,0,0,0,0,0,0,0,0,0,0,0,0,0,0,0,0,0,0,0,0,0,0,0,0,0,
0,0,0,0,0,0,0,0,0,0,0,551,0,0,0,0,0,0,0,0,0,0,0,0,0,0,0,0,0,0,0,0,0,0,0,0,0,0,0,0,0,0,0,0,0,0,0,0,0,0,0,0,0,0,0,0,0,0,
0,0,0,0,0,0,0,0,0,0,623,0,0,0,0,0,0,0,0,0,0,0,0,0,0,0,0,0,0,0,0,0,0,0,0,0,0,0,0,0,0,0,0,0,0,0,0,0,0,0,0,0,0,0,0,0,0,0,
0,0,0,0,0,0,0,0,0,0,0,0,0,0,0,0,0,0,0,0,0,0,0,0,0,0,0,0,0,0,0,0,0,0,0,0,0,0,0,0,0,0,0,0,0,0,0,0,0,0,0,0,0,0,0,0,0,0,
0,0,0,0,0,0,0,0,0,0,0,0,0,0,0,0,0,0,0,0,0,0,0,0,0,0,0,0,0,0,0,0,0,0,0,0,0,0,0,0,0,0,0,0,0,0,0,0,0,0,0,0,0,0,0,0,0,0,
0,0,0,0,0,0,0,0,0,0,0,0,0,0,0,0,0,0,0,0,0,0,0,0,0,0,0,0,0,0,0,0,0,0,0,0,0,0,0,0,0,0,0,0,0,0,0,0,0,0,0,0,0,0,0,0,0,0,
0,0,0,0,0,0,0,0,0,0,0,0,0,0,0,0,0,0,0,0,0,0,0,0,0,0,0,0,0,0,0,0,0,0,0,0,0,0,0,0,0,0,0,0,0,0,0,0,0,0,0,0,0,0,0,0,0,0,
0,0,0,0,0,0,0,0,0,0,0,0,0,0,0,0,0,0,0,0,0,0,0,0,0,0,0,0,0,0,0,0,0,0,0,0,0,0,0,0,0,0,0,0,0,0,0,0,0,0,0,0,0,0,0,0,0,0,
0,0,0,0,0,0,0,0,0,0,0,0,0,0,0,0,0,0,0,0,0,0,0,0,0,0,0,0,0,0,0,0,0,0,0,0,0,0,0,0,0,0,0,0,0,0,0,0,0,0,0,0,0,0,0,0,0,0,
0,0,0,0,0,0,0,0,0,0,0,0,0,0,0,0,0,0,0,0,0,0,0,0,0,0,0,0,0,0,0,0,0,0,0,0,0,0,0,0,0,0,0,0,0,0,0,0,0,0,0,0,0,0,0,0,0,0,
0,0,0,0,0,0,0,0,0,0,0,0,0,0,0,0,0,0,0,0,0,0,0,0,0,0,0,0,0,0,0,0,0,0,0,0,0,0,0,0,0,0,0,0,0,0,0,0,0,0,0,0,0,0,0,0,0,0
</data>
 </layer>
 <layer id="3" name="Over" width="58" height="47">
  <data encoding="csv">
0,0,0,0,0,0,0,0,0,0,0,0,0,0,0,0,0,0,0,0,0,0,0,0,0,0,0,0,0,0,0,0,0,0,0,0,0,0,0,0,0,0,0,0,0,0,0,0,0,0,0,0,0,0,0,0,0,0,
0,0,0,0,0,0,0,0,0,0,0,0,0,0,0,0,0,0,0,0,0,0,0,0,0,0,0,0,0,0,0,0,0,0,0,0,0,0,0,0,0,0,0,0,0,0,0,0,0,0,0,0,0,0,0,0,0,0,
0,0,0,0,0,0,0,0,0,0,0,0,0,0,0,0,0,0,0,0,0,0,0,0,0,0,0,0,0,0,0,0,0,0,0,0,0,0,0,0,0,0,0,0,0,0,0,0,0,0,0,0,0,0,0,0,0,0,
0,0,0,0,0,0,0,0,0,0,0,0,0,0,0,0,0,0,0,0,0,0,0,0,0,0,0,0,0,0,0,0,0,0,0,0,0,0,0,0,0,0,0,0,0,0,0,0,0,0,0,0,0,0,0,0,0,0,
0,0,0,0,0,0,0,0,0,0,0,0,0,0,0,0,0,0,0,0,0,0,0,0,0,0,0,0,0,0,0,0,0,0,0,0,0,0,0,0,0,0,0,0,0,0,0,0,0,0,0,0,0,0,0,0,0,0,
0,0,0,0,0,0,0,0,0,0,0,0,0,0,0,0,0,0,0,0,0,0,0,0,0,0,0,0,0,0,0,0,0,0,0,0,0,0,0,0,0,0,0,0,0,0,0,0,0,0,0,0,0,0,0,0,0,0,
0,0,0,0,0,0,0,0,0,0,0,0,0,0,0,0,0,0,0,0,0,0,0,0,0,0,0,0,0,0,0,0,0,0,0,0,0,0,0,0,0,0,0,0,0,0,0,0,0,0,0,0,0,0,0,0,0,0,
0,0,0,0,0,0,0,0,0,0,0,0,0,0,0,0,0,0,0,0,0,0,0,0,0,0,0,0,0,0,0,0,0,0,0,0,0,0,0,0,0,0,0,0,0,0,0,0,0,0,0,0,0,0,0,0,0,0,
0,0,0,0,0,0,0,0,0,0,0,0,0,0,0,0,0,0,0,0,0,0,0,0,0,0,0,0,0,0,0,0,0,0,0,0,0,0,0,0,0,0,0,0,0,0,0,0,0,0,0,0,0,0,0,0,0,0,
0,0,0,0,0,0,0,0,0,0,0,0,0,0,0,0,0,0,0,0,0,0,0,0,0,0,0,0,0,0,0,0,0,0,0,0,0,0,0,0,0,0,0,0,0,0,0,0,0,0,0,0,0,0,0,0,0,0,
0,0,0,0,0,0,0,0,0,0,0,0,0,0,0,0,0,0,0,0,0,0,0,0,0,0,0,0,0,0,0,0,0,0,0,0,0,0,0,0,0,0,0,0,0,0,0,0,0,0,0,0,0,0,0,0,0,0,
0,0,0,0,0,0,0,0,0,0,0,0,0,0,0,0,0,0,0,0,0,0,0,0,0,0,0,0,0,0,0,0,0,0,0,0,0,0,0,0,0,0,0,0,0,0,0,0,0,0,0,0,0,0,0,0,0,0,
0,0,0,0,0,0,0,0,0,0,0,0,0,0,0,0,0,0,0,0,0,0,0,0,0,0,0,0,0,0,0,0,0,0,0,0,0,0,0,0,0,0,0,0,0,0,0,0,0,0,0,0,0,0,0,0,0,0,
0,0,0,0,0,0,0,0,0,0,0,0,0,0,0,0,0,0,0,0,0,0,0,0,0,0,0,0,0,0,0,0,0,0,0,0,0,0,0,0,0,0,0,0,0,0,0,0,0,0,0,0,0,0,0,0,0,0,
0,0,0,0,0,0,0,0,0,0,0,0,0,0,0,0,0,0,0,0,0,0,0,0,0,0,0,0,0,0,0,0,0,0,0,0,0,0,0,0,0,0,0,0,0,0,0,0,0,0,0,0,0,0,0,0,0,0,
0,0,0,0,0,0,0,0,0,0,0,0,0,0,0,0,0,0,0,0,0,0,0,0,0,0,0,0,0,0,0,0,0,0,0,0,0,0,0,0,0,0,0,0,0,0,0,0,0,0,0,0,0,0,0,0,0,0,
0,0,0,0,0,0,0,0,0,0,0,0,0,0,0,0,0,0,0,0,0,0,0,0,0,0,0,0,0,0,0,0,0,0,0,0,0,0,0,0,0,0,0,0,0,0,0,0,0,0,0,0,0,0,0,0,0,0,
0,0,0,0,0,0,0,0,0,0,0,0,0,0,0,0,0,0,0,0,0,0,0,0,0,0,0,0,0,0,0,0,0,0,0,0,0,0,0,0,0,0,0,0,0,0,0,0,0,0,0,0,0,0,0,0,0,0,
0,0,0,0,0,0,0,0,0,0,0,0,0,0,0,0,0,0,0,0,0,0,0,0,0,0,0,0,0,0,0,0,0,0,0,0,0,0,0,0,0,0,0,0,0,0,0,0,0,0,0,0,0,0,0,0,0,0,
0,0,0,0,0,0,0,0,0,0,0,0,0,0,0,0,0,0,0,0,0,0,0,0,0,0,0,0,0,0,0,0,0,0,0,0,476,477,478,0,0,0,0,0,0,0,0,0,0,0,0,0,0,0,0,0,0,0,
0,0,0,0,0,0,0,0,0,0,0,0,0,0,0,0,0,0,0,0,0,0,0,0,0,0,0,0,0,0,0,0,0,0,0,0,512,513,514,692,693,694,0,0,0,0,0,0,0,0,0,0,0,0,0,0,0,0,
0,0,0,0,0,0,0,0,0,0,0,0,0,0,0,0,0,0,0,0,0,0,0,0,0,0,0,0,0,0,0,0,0,0,0,0,548,549,550,728,729,730,0,0,0,0,0,0,0,0,0,0,0,0,0,0,0,0,
0,0,0,0,0,0,0,0,0,0,0,0,0,0,0,0,0,0,0,0,0,0,0,0,0,0,625,626,627,0,0,0,0,0,0,0,0,0,0,764,765,766,0,0,0,0,0,0,0,0,0,0,0,0,0,0,0,0,
0,0,0,0,0,0,0,0,0,0,0,0,0,0,0,0,0,0,0,0,0,0,0,0,659,660,661,662,663,0,0,0,451,452,453,454,455,0,0,0,0,0,0,0,0,0,0,0,0,0,0,0,0,0,0,0,0,0,
0,0,0,0,0,0,0,0,0,0,0,0,0,0,0,0,0,0,0,0,0,0,0,0,695,696,697,698,0,0,0,0,487,488,489,490,491,0,0,0,0,0,0,0,0,0,0,0,0,0,0,0,0,0,0,0,0,0,
0,0,0,0,0,0,0,0,0,0,0,0,0,0,0,0,0,0,0,0,0,0,0,0,731,732,733,734,0,0,0,595,523,524,525,526,527,0,0,0,0,0,0,0,0,0,0,0,0,0,0,0,0,0,0,0,0,0,
0,0,0,0,0,0,0,0,0,0,0,0,0,0,0,0,0,0,0,0,0,0,476,477,478,768,769,0,0,0,0,0,0,0,0,0,0,0,0,0,0,0,0,0,0,0,0,0,0,0,0,0,0,0,0,0,0,0,
0,0,0,0,0,0,0,0,0,0,0,0,0,0,0,0,0,0,0,0,0,0,512,513,514,0,0,0,593,594,595,596,0,0,0,0,0,0,0,0,0,0,0,0,0,0,0,0,0,0,0,0,0,0,0,0,0,0,
0,0,0,0,0,0,0,0,0,0,0,0,0,0,0,0,0,0,0,0,0,0,548,549,550,0,0,0,0,0,597,598,599,0,0,0,0,0,0,0,0,0,0,0,0,0,0,0,0,0,0,0,0,0,0,0,0,0,
0,0,0,0,0,0,0,0,0,0,0,0,0,0,0,0,0,0,0,0,0,0,0,0,0,0,0,0,0,0,0,0,0,0,0,0,0,0,0,0,0,0,0,0,0,0,0,0,0,0,0,0,0,0,0,0,0,0,
0,0,0,0,0,0,0,0,0,0,0,0,0,0,0,0,0,0,0,0,0,0,0,0,0,0,0,0,0,596,0,0,0,0,0,0,0,0,0,0,0,0,0,0,0,0,0,0,0,0,0,0,0,0,0,0,0,0,
0,0,0,0,0,0,0,0,0,0,0,0,0,0,0,0,0,0,0,0,0,0,0,0,0,0,0,0,0,0,0,0,0,0,0,0,0,0,0,0,0,0,0,0,0,0,0,0,0,0,0,0,0,0,0,0,0,0,
0,0,0,0,0,0,0,0,0,0,0,0,0,0,0,0,0,0,0,0,0,0,0,0,0,0,0,0,0,0,0,0,0,0,0,0,0,0,0,0,0,0,0,0,0,0,0,0,0,0,0,0,0,0,0,0,0,0,
0,0,0,0,0,0,0,0,0,0,0,0,0,0,0,0,0,0,0,0,0,0,0,0,0,0,0,0,0,0,0,0,0,0,0,0,0,0,0,0,0,0,0,0,0,0,0,0,0,0,0,0,0,0,0,0,0,0,
0,0,0,0,0,0,0,0,0,0,0,0,0,0,0,0,0,0,0,0,0,0,0,0,0,0,0,0,0,0,0,0,0,0,0,0,0,0,0,0,0,0,0,0,0,0,0,0,0,0,0,0,0,0,0,0,0,0,
0,0,0,0,0,0,0,0,0,0,0,0,0,0,0,0,0,0,0,0,0,0,0,0,0,0,0,0,0,0,0,0,0,0,0,0,0,0,0,0,0,0,0,0,0,0,0,0,0,0,0,0,0,0,0,0,0,0,
0,0,0,0,0,0,0,0,0,0,0,0,0,0,0,0,0,0,0,0,0,0,0,0,0,0,0,0,0,0,0,0,0,0,0,0,0,0,0,0,0,0,0,0,0,0,0,0,0,0,0,0,0,0,0,0,0,0,
0,0,0,0,0,0,0,0,0,0,0,0,0,0,0,0,0,0,0,0,0,0,0,0,0,0,0,0,0,0,0,0,0,0,0,0,0,0,0,0,0,0,0,0,0,0,0,0,0,0,0,0,0,0,0,0,0,0,
0,0,0,0,0,0,0,0,0,0,0,0,0,0,0,0,0,0,0,0,0,0,0,0,0,0,0,0,0,0,0,0,0,0,0,0,0,0,0,0,0,0,0,0,0,0,0,0,0,0,0,0,0,0,0,0,0,0,
0,0,0,0,0,0,0,0,0,0,0,0,0,0,0,0,0,0,0,0,0,0,0,0,0,0,0,0,0,0,0,0,0,0,0,0,0,0,0,0,0,0,0,0,0,0,0,0,0,0,0,0,0,0,0,0,0,0,
0,0,0,0,0,0,0,0,0,0,0,0,0,0,0,0,0,0,0,0,0,0,0,0,0,0,0,0,0,0,0,0,0,0,0,0,0,0,0,0,0,0,0,0,0,0,0,0,0,0,0,0,0,0,0,0,0,0,
0,0,0,0,0,0,0,0,0,0,0,0,0,0,0,0,0,0,0,0,0,0,0,0,0,0,0,0,0,0,0,0,0,0,0,0,0,0,0,0,0,0,0,0,0,0,0,0,0,0,0,0,0,0,0,0,0,0,
0,0,0,0,0,0,0,0,0,0,0,0,0,0,0,0,0,0,0,0,0,0,0,0,0,0,0,0,0,0,0,0,0,0,0,0,0,0,0,0,0,0,0,0,0,0,0,0,0,0,0,0,0,0,0,0,0,0,
0,0,0,0,0,0,0,0,0,0,0,0,0,0,0,0,0,0,0,0,0,0,0,0,0,0,0,0,0,0,0,0,0,0,0,0,0,0,0,0,0,0,0,0,0,0,0,0,0,0,0,0,0,0,0,0,0,0,
0,0,0,0,0,0,0,0,0,0,0,0,0,0,0,0,0,0,0,0,0,0,0,0,0,0,0,0,0,0,0,0,0,0,0,0,0,0,0,0,0,0,0,0,0,0,0,0,0,0,0,0,0,0,0,0,0,0,
0,0,0,0,0,0,0,0,0,0,0,0,0,0,0,0,0,0,0,0,0,0,0,0,0,0,0,0,0,0,0,0,0,0,0,0,0,0,0,0,0,0,0,0,0,0,0,0,0,0,0,0,0,0,0,0,0,0,
0,0,0,0,0,0,0,0,0,0,0,0,0,0,0,0,0,0,0,0,0,0,0,0,0,0,0,0,0,0,0,0,0,0,0,0,0,0,0,0,0,0,0,0,0,0,0,0,0,0,0,0,0,0,0,0,0,0
</data>
 </layer>
 <objectgroup id="4" name="Objects">
  <object id="1" name="Starting Point" type="start" x="794.667" y="471.667">
   <point/>
  </object>
  <object id="5" name="Exit" type="exit" x="336" y="208" width="48" height="48"/>
  <object id="7" name="Resting Spot" type="rest" x="528" y="416" width="48" height="16"/>
 </objectgroup>
</map>
