<?xml version="1.0" encoding="UTF-8"?>
<map version="1.10" tiledversion="1.11.2" orientation="orthogonal" renderorder="right-down" width="30" height="20" tilewidth="16" tileheight="16" infinite="0" backgroundcolor="#3d4480" nextlayerid="2" nextobjectid="1">
 <tileset firstgid="1" name="world_map-tiles" tilewidth="16" tileheight="16" spacing="1" margin="1" tilecount="212" columns="4">
  <image source="world_map/world_map_tiles.png" width="69" height="902"/>
 </tileset>
 <layer id="1" name="Capa de patrones 1" width="30" height="20">
  <data encoding="csv">
0,0,0,0,0,0,0,0,0,0,0,0,0,0,0,0,0,0,0,0,0,0,0,0,0,0,0,0,0,0,
0,32,1,2,30,30,50,51,51,51,50,50,50,51,51,50,51,50,51,30,2,2,2,30,2,2,30,3,33,0,
46,4,5,31,6,6,31,31,31,31,6,31,31,31,31,6,6,31,6,31,31,6,6,6,6,6,6,7,8,41,
44,9,25,11,11,11,11,11,11,11,11,11,11,11,11,11,11,11,11,11,11,11,11,11,11,11,11,26,13,40,
44,9,25,11,11,11,11,11,11,11,11,11,11,11,11,11,11,11,11,11,11,11,11,11,11,11,11,12,18,39,
45,14,25,11,11,11,11,11,11,11,11,11,11,11,11,11,11,11,11,11,11,11,11,11,11,11,11,12,13,40,
44,14,25,11,11,11,65,70,69,82,11,11,11,11,11,11,11,11,11,11,11,11,11,11,11,11,11,26,13,40,
46,14,10,11,11,11,76,61,64,84,11,11,11,11,11,11,11,11,11,11,11,11,11,11,11,11,11,26,18,39,
44,9,10,11,11,11,68,73,67,11,11,11,11,11,11,11,11,11,11,11,11,65,28,28,28,66,11,12,13,39,
44,14,25,11,11,11,11,11,11,11,11,11,11,11,11,11,11,11,11,11,11,75,63,62,61,72,11,26,27,39,
44,9,10,11,11,11,11,11,11,11,11,11,11,11,11,11,11,11,11,11,11,68,73,74,73,67,11,12,18,39,
46,14,25,11,11,11,11,11,11,11,11,11,11,65,69,70,66,11,11,11,11,11,11,11,11,11,11,12,18,40,
46,9,10,11,11,11,11,11,11,11,11,11,11,76,63,64,72,11,11,11,11,11,11,11,11,11,11,26,18,40,
44,9,25,11,11,11,11,11,11,11,11,11,11,68,74,73,67,11,11,11,11,11,11,11,11,11,11,12,27,39,
46,9,25,11,11,11,11,11,11,11,11,11,11,11,11,11,11,11,11,11,11,11,11,11,11,11,11,12,27,40,
44,14,10,11,11,11,11,11,11,11,11,11,11,11,11,11,11,11,11,11,11,11,11,11,11,11,11,26,27,39,
46,14,15,16,16,28,16,28,28,28,28,28,28,28,16,16,16,16,16,16,16,16,28,16,28,16,28,17,27,39,
44,19,20,21,21,20,20,21,21,21,21,20,20,21,20,20,21,20,21,20,21,20,21,20,21,20,21,22,23,42,
0,34,35,36,36,36,37,35,35,35,36,35,37,36,37,35,36,36,37,35,35,36,35,37,37,37,35,36,38,0,
0,0,0,0,0,0,0,0,0,0,0,0,0,0,0,0,0,0,0,0,0,0,0,0,0,0,0,0,0,0
</data>
 </layer>
</map>
